images/OST.svg

<svg height="250" viewBox="0 0 250 250" width="250" xmlns="http://www.w3.org/2000/svg"><g fill="#34445b"><path d="m139.246094 77.683594 31.546875-34.085938c15.050781 2.179688 30.195312-3.410156 35.988281-13.273437 5.792969-9.867188.578125-21.191407-12.394531-26.910157-12.96875-5.71875-29.984375-4.199218-40.4375 3.613282-10.449219 7.8125-11.339844 19.683594-2.121094 28.210937l-39.1875 42.28125c-66.054687 4.519531-115.460937 44.054688-112.460937 89.992188 2.996093 45.9375 57.347656 82.21875 123.722656 82.589843 66.371094.375 121.566406-35.296874 125.632812-81.195312 4.070313-45.898438-44.40625-85.976562-110.34375-91.238281zm-14.398438 131.714844c-33.492187 0-61.710937-17.324219-65.734375-40.359376-4.019531-23.035156 17.417969-44.523437 49.945313-50.058593 32.523437-5.53125 65.890625 6.632812 77.726562 28.339843-10.011718-8.9375-27.109375-12.480468-42.5625-8.820312-15.449218 3.660156-25.839844 13.714844-25.859375 25.027344s10.335938 21.382812 25.773438 25.070312c15.4375 3.683594 32.550781.167969 42.59375-8.75-9.78125 17.789063-34.40625 29.546875-61.882813 29.550782zm0 0"/><path d="m139.246094 77.683594 31.546875-34.085938c15.050781 2.179688 30.195312-3.410156 35.988281-13.273437 5.792969-9.867188.578125-21.191407-12.394531-26.910157-12.96875-5.71875-29.984375-4.199218-40.4375 3.613282-10.449219 7.8125-11.339844 19.683594-2.121094 28.210937l-39.1875 42.28125c-66.054687 4.519531-115.460937 44.054688-112.460937 89.992188 2.996093 45.9375 57.347656 82.21875 123.722656 82.589843 66.371094.375 121.566406-35.296874 125.632812-81.195312 4.070313-45.898438-44.40625-85.976562-110.34375-91.238281zm-14.398438 131.714844c-33.492187 0-61.710937-17.324219-65.734375-40.359376-4.019531-23.035156 17.417969-44.523437 49.945313-50.058593 32.523437-5.53125 65.890625 6.632812 77.726562 28.339843-10.011718-8.9375-27.109375-12.480468-42.5625-8.820312-15.449218 3.660156-25.839844 13.714844-25.859375 25.027344s10.335938 21.382812 25.773438 25.070312c15.4375 3.683594 32.550781.167969 42.59375-8.75-9.78125 17.789063-34.40625 29.546875-61.882813 29.550782zm0 0"/></g></svg>

<svg xmlns="http://www.w3.org/2000/svg" xmlns:xlink="http://www.w3.org/1999/xlink" width="250px" height="250px" viewBox="0 0 250 250" version="1.1">
<g id="surface1">
<path style=" stroke:none;fill-rule:nonzero;fill:rgb(20.392157%,26.666668%,35.686275%);fill-opacity:1;" d="M 139.246094 77.683594 L 170.792969 43.597656 C 185.84375 45.777344 200.988281 40.1875 206.78125 30.324219 C 212.574219 20.457031 207.359375 9.132812 194.386719 3.414062 C 181.417969 -2.304688 164.402344 -0.785156 153.949219 7.027344 C 143.5 14.839844 142.609375 26.710938 151.828125 35.238281 L 112.640625 77.519531 C 46.585938 82.039062 -2.820312 121.574219 0.179688 167.511719 C 3.175781 213.449219 57.527344 249.730469 123.902344 250.101562 C 190.273438 250.476562 245.46875 214.804688 249.535156 168.90625 C 253.605469 123.007812 205.128906 82.929688 139.191406 77.667969 Z M 124.847656 209.398438 C 91.355469 209.398438 63.136719 192.074219 59.113281 169.039062 C 55.09375 146.003906 76.53125 124.515625 109.058594 118.980469 C 141.582031 113.449219 174.949219 125.613281 186.785156 147.320312 C 176.773438 138.382812 159.675781 134.839844 144.222656 138.5 C 128.773438 142.160156 118.382812 152.214844 118.363281 163.527344 C 118.34375 174.839844 128.699219 184.910156 144.136719 188.597656 C 159.574219 192.28125 176.6875 188.765625 186.730469 179.847656 C 176.949219 197.636719 152.324219 209.394531 124.847656 209.398438 Z M 124.847656 209.398438 "/>
<path style=" stroke:none;fill-rule:nonzero;fill:rgb(20.392157%,26.666668%,35.686275%);fill-opacity:1;" d="M 139.246094 77.683594 L 170.792969 43.597656 C 185.84375 45.777344 200.988281 40.1875 206.78125 30.324219 C 212.574219 20.457031 207.359375 9.132812 194.386719 3.414062 C 181.417969 -2.304688 164.402344 -0.785156 153.949219 7.027344 C 143.5 14.839844 142.609375 26.710938 151.828125 35.238281 L 112.640625 77.519531 C 46.585938 82.039062 -2.820312 121.574219 0.179688 167.511719 C 3.175781 213.449219 57.527344 249.730469 123.902344 250.101562 C 190.273438 250.476562 245.46875 214.804688 249.535156 168.90625 C 253.605469 123.007812 205.128906 82.929688 139.191406 77.667969 Z M 124.847656 209.398438 C 91.355469 209.398438 63.136719 192.074219 59.113281 169.039062 C 55.09375 146.003906 76.53125 124.515625 109.058594 118.980469 C 141.582031 113.449219 174.949219 125.613281 186.785156 147.320312 C 176.773438 138.382812 159.675781 134.839844 144.222656 138.5 C 128.773438 142.160156 118.382812 152.214844 118.363281 163.527344 C 118.34375 174.839844 128.699219 184.910156 144.136719 188.597656 C 159.574219 192.28125 176.6875 188.765625 186.730469 179.847656 C 176.949219 197.636719 152.324219 209.394531 124.847656 209.398438 Z M 124.847656 209.398438 "/>
</g>
</svg>
